X:561
T:The Dark Island
Z:Jack Campin, http://www.campin.me.uk/
F:Jack Campin's Nine-Note Tunebook
% last edit 03-02-2013
C:Ian Maclachlan, 1958 
M:3/4
L:1/8
Q:3/4=50
K:G
   E2|A3E A2|G3A G2|E3D C2|D4  \
[1 GA|B3A G2|Bd3 D2|
                    B3d B2|A4:|\
[2 GA|B3D dB|A3D BA|G6    |G4||
   Bc|d3D D2|B3A G2|EC3 E2|D4  \
   GA|B3A G2|
             Bd3 D2|B3d B2|A4  \
   DE|A3E A2|G3A G2|
                    E3D C2|D4  \
   GA|B3D dB|A3D BA|G6    |G4|]

